X: 2
T:ROSALIE
M:2/4
L:1/16
Q:160
C:M.P.
R:scottish
K:C
||:c2e2 c4|BcdB G4|GABc ecec|fedc d2G2|c2e2 c4|BcdB G4|cBcd edef|gfed c4
:|
|:f4d4|e2e2c4|fedc BGAB|cBcd e2c2|f4d4|e2e2 c4|gfed cBcd|Gfed c4:||
